!!!COM:	Ockeghem, Johannes
!!!CDT:	~1425-1497/02/06
!!!OPR:	Requiem
!!!ONM:	4
!!!OTL:	Tract Sicut cervus
!!!AGN:	Mass; Requiem; Tract
!!!SCT:	Ock1013d
!!!SCA:	Ock1013d
!!!voices:	5
!!!voices-OPR:	3-4
**kern	**kern	**kern	**kern	**kern
*staff5	*staff4	*staff3	*staff2	*staff1
*Ivox	*Ivox	*Ivox	*Ivox	*Ivox
*I"Contrabassus	*I"Tenor	*I"Contraltus	*I"Discantus2	*I"Discantus1
*I'C	*I'T	*I'C	*I'D2	*I'D1
*>[A,B,C,D]	*>[A,B,C,D]	*>[A,B,C,D]	*>[A,B,C,D]	*>[A,B,C,D]
*>A	*>A	*>A	*>A	*>A
*clefF4	*clefGv2	*clefGv2	*clefG2	*clefG2
*k[]	*k[]	*k[]	*k[]	*k[]
*M3/1	*M3/1	*M3/1	*M3/1	*M3/1
*met(O)	*met(O)	*met(O)	*met(O)	*met(O)
=1-	=1-	=1-	=1-	=1-
0.r	0.r	0.r	1g	1g
.	.	.	1g	1g
.	.	.	1e	1g
=2	=2	=2	=2	=2
0.r	0.r	0.r	1f	1a
.	.	.	1g	1.b
.	.	.	2d/	.
.	.	.	2e/	2g/
=3	=3	=3	=3	=3
0.r	0.r	0.r	1f	1a
.	.	.	2r	1g
.	.	.	2g/	.
.	.	.	2f/	1a
.	.	.	[2a/	.
=4	=4	=4	=4	=4
0.r	0.r	0.r	2a/]	1a
.	.	.	1cc	.
.	.	.	.	1g
.	.	.	2b\	.
.	.	.	2a/	1f
.	.	.	4g/	.
.	.	.	4a/	.
=5	=5	=5	=5	=5
0.r	0.r	0.r	2b\	1g
.	.	.	1g	.
.	.	.	.	1g
.	.	.	2f/	.
.	.	.	1e	1cc
=6	=6	=6	=6	=6
0.r	0.r	0.r	2d/	1.dd
.	.	.	2f/	.
.	.	.	2g/	.
.	.	.	1a	2cc\
.	.	.	.	1a
.	.	.	2cc\	.
=7	=7	=7	=7	=7
0.r	0.r	0.r	2b\	2g/
.	.	.	1a	2f/
.	.	.	.	1g
.	.	.	1g	.
.	.	.	.	1a
.	.	.	2f#i/	.
=8	=8	=8	=8	=8
0.r	0.r	0.r	0g	1g
.	.	.	.	1r
.	.	.	2r	1g
.	.	.	[2e/	.
=9	=9	=9	=9	=9
0.r	0.r	0.r	2e/]	2.g/
.	.	.	2f/	.
.	.	.	.	4a/
.	.	.	2g/	2b\
.	.	.	2e/	1cc
.	.	.	1d	.
.	.	.	.	2b\
=10	=10	=10	=10	=10
0.r	0.r	0.r	2.c/	1cc
.	.	.	4d/	.
.	.	.	2e/	1cc
.	.	.	2f/	.
.	.	.	2g/	2b\
.	.	.	2a/	2cc\
=11	=11	=11	=11	=11
0.r	0.r	0.r	1b	1dd
.	.	.	1cc	1.ee
.	.	.	1cc	.
.	.	.	.	[2cc\
=12	=12	=12	=12	=12
0.r	0.r	0.r	1a	2cc\]
.	.	.	.	1a
.	.	.	2.f/	.
.	.	.	.	1cc
.	.	.	4g/	.
.	.	.	2a/	.
.	.	.	[2g/	2b\
=13	=13	=13	=13	=13
0.r	0.r	0.r	2g/]	1a
.	.	.	2f#i/	.
.	.	.	1g	1g
.	.	.	2r	1cc
.	.	.	[2cc\	.
=14	=14	=14	=14	=14
0.r	0.r	0.r	2cc\]	1a
.	.	.	1a	.
.	.	.	.	2.cc\
.	.	.	2cc\	.
.	.	.	.	4b\
.	.	.	2b\	1g
.	.	.	2dd\	.
=15	=15	=15	=15	=15
0.r	0.r	0.r	2cc\	1a
.	.	.	1a	.
.	.	.	.	2f/
.	.	.	2b\	2d/
.	.	.	2cc\	2c/
.	.	.	2f/	[2f/
=16	=16	=16	=16	=16
0.r	0.r	0.r	1g	2f/]
.	.	.	.	2e/
.	.	.	0f;	0f;
=17	=17	=17	=17	=17
0.r	0.r	0.r	1f	1r
.	.	.	1g	1r
.	.	.	1a	1f
=18	=18	=18	=18	=18
0.r	0.r	0.r	1b-i	1g
.	.	.	2a/	1a
.	.	.	2f/	.
.	.	.	1g	1b-i
=19	=19	=19	=19	=19
0.r	0.r	0.r	1a	2a/
.	.	.	.	2f/
.	.	.	2g/	1g
.	.	.	2e/	.
.	.	.	1f	1a
=20	=20	=20	=20	=20
0.r	0.r	0.r	2r	2g/
.	.	.	2g/	2e/
.	.	.	1a	1f
.	.	.	2g/	2r
.	.	.	2e/	2g/
=21	=21	=21	=21	=21
0.r	0.r	0.r	2f/	1a
.	.	.	2d/	.
.	.	.	2r	2.g/
.	.	.	1dd	.
.	.	.	.	4f/
.	.	.	.	2g/
.	.	.	[2cc\	[2a/
=22	=22	=22	=22	=22
0.r	0.r	0.r	2cc\]	2a/]
.	.	.	2b\	1g
.	.	.	1a	.
.	.	.	.	2f#i/
.	.	.	1g	1g
=23	=23	=23	=23	=23
0.r	0.r	0.r	1.g	1r
.	.	.	.	1.g
.	.	.	2g/	.
.	.	.	1g	.
.	.	.	.	2g/
=24	=24	=24	=24	=24
0.r	0.r	0.r	1g	1g
.	.	.	1e	1g
.	.	.	2d/	[1a
.	.	.	2c/	.
=25	=25	=25	=25	=25
0.r	0.r	0.r	2d/	1a]
.	.	.	2f/	.
.	.	.	2e/	1g
.	.	.	1c	.
.	.	.	.	1r
.	.	.	2B/	.
=26	=26	=26	=26	=26
0.r	0.r	0.r	2.c/	1g
.	.	.	4d/	.
.	.	.	2e/	2.g/
.	.	.	2f/	.
.	.	.	.	4a/
.	.	.	2g/	2b\
.	.	.	2a/	2cc\
=27	=27	=27	=27	=27
0.r	0.r	0.r	2b\	2dd\
.	.	.	2cc\	1ee
.	.	.	2g/	.
.	.	.	2e/	1cc
.	.	.	1d	.
.	.	.	.	2b\
=28	=28	=28	=28	=28
0.r	0.r	0.r	0c	1cc
.	.	.	.	1cc
.	.	.	2r	1a
.	.	.	2d/	.
=29	=29	=29	=29	=29
0.r	0.r	0.r	2e/	1cc
.	.	.	1c	.
.	.	.	.	0cc
.	.	.	2f/	.
.	.	.	2g/	.
.	.	.	[2a/	.
=30	=30	=30	=30	=30
0.r	0.r	0.r	2a/]	1b-i
.	.	.	2g/	.
.	.	.	2a/	1a
.	.	.	2cc\	.
.	.	.	2b-i\	2r
.	.	.	2g/	[2b-i\
=31	=31	=31	=31	=31
0.r	0.r	0.r	1f	4b-\]
.	.	.	.	4a/
.	.	.	.	2cc\
.	.	.	2g/	2b-i\
.	.	.	2b-i\	2g/
.	.	.	1a	2.f/
.	.	.	.	4d/
=32	=32	=32	=32	=32
0.r	0.r	0.r	2r	2e/
.	.	.	2.dd\	2d/
.	.	.	.	2r
.	.	.	4cc\	.
.	.	.	2b-i\	2.dd\
.	.	.	2a/	.
.	.	.	.	4cc\
.	.	.	2g/	2b-i\
=33	=33	=33	=33	=33
0.r	0.r	0.r	1cc	1a
.	.	.	2b-i\	2g/
.	.	.	1a	1cc
.	.	.	[2g/	2b-i\
=34	=34	=34	=34	=34
0.r	0.r	0.r	2g/]	1a
.	.	.	2f#i/	.
.	.	.	0gl	0gl
!!LO:LB:i:g=z
=35||	=35||	=35||	=35||	=35||
*>B	*>B	*>B	*>B	*>B
*clefF4	*clefGv2	*clefGv2	*clefG2	*clefG2
*k[]	*k[]	*k[]	*k[]	*k[]
*M2/1	*M2/1	*M2/1	*M2/1	*M2/1
*met(C)	*met(C)	*met(C)	*met(C)	*met(C)
!!section: Sitivit anima mea
!!!OMD: Sitivit anima mea
1.G	0G	0r	0r	0r
2A\	.	.	.	.
=36	=36	=36	=36	=36
2B\	1G	0r	0r	0r
4A\	.	.	.	.
4B\	.	.	.	.
2c\	2.A/	.	.	.
[2F\	.	.	.	.
.	4B\	.	.	.
=37	=37	=37	=37	=37
2F\]	2c\	0r	0r	0r
2E\	1c	.	.	.
1D	.	.	.	.
.	2B\	.	.	.
=38	=38	=38	=38	=38
1C	1c	0r	0r	0r
[1F	1r	.	.	.
=39	=39	=39	=39	=39
2F\]	1.c	0r	0r	0r
2F\	.	.	.	.
1F	.	.	.	.
.	2c\	.	.	.
=40	=40	=40	=40	=40
2.F\	1c	0r	0r	0r
4G\	.	.	.	.
2A\	2c\	.	.	.
[2B-i\	[2d\	.	.	.
=41	=41	=41	=41	=41
4B-\]	2d\]	0r	0r	0r
4A\	.	.	.	.
2.A\	2.c\	.	.	.
4G\	4B\	.	.	.
[2G\	2G/	.	.	.
=42	=42	=42	=42	=42
2G\]	1A	0r	0r	0r
2F#i\	.	.	.	.
1G	1G	.	.	.
=43	=43	=43	=43	=43
2r	1A	0r	0r	0r
2F\	.	.	.	.
2E\	1c	.	.	.
2C/	.	.	.	.
=44	=44	=44	=44	=44
2D\	1B	0r	0r	0r
2E\	.	.	.	.
2F\	1A	.	.	.
4E\	.	.	.	.
4F\	.	.	.	.
=45	=45	=45	=45	=45
4G\	1B	0r	0r	0r
4F\	.	.	.	.
4E\	.	.	.	.
4D\	.	.	.	.
2C/	1c	.	.	.
[2F\	.	.	.	.
=46	=46	=46	=46	=46
2F\]	0A	0r	0r	0r
2G\	.	.	.	.
2A\	.	.	.	.
2F\	.	.	.	.
=47	=47	=47	=47	=47
2G\	1G	0r	0r	0r
2E\	.	.	.	.
2.D\	2.F/	.	.	.
4E\	4G/	.	.	.
=48	=48	=48	=48	=48
2D\	2B-i\	0r	0r	0r
1C	1A	.	.	.
2BB-i/	[2G/	.	.	.
=49	=49	=49	=49	=49
1AA	2G/]	0r	0r	0r
.	2F#i/	.	.	.
2GG/	[1G	.	.	.
[2C/	.	.	.	.
=50	=50	=50	=50	=50
4C/]	1G]	0r	0r	0r
4D\	.	.	.	.
2E\	.	.	.	.
2F\	2D/	.	.	.
2G\	2E/	.	.	.
=51	=51	=51	=51	=51
2r	2F/	0r	0r	0r
2GG/	2G/	.	.	.
2AA/	2r	.	.	.
2BB/	2G/	.	.	.
=52	=52	=52	=52	=52
2C/	2A/	0r	0r	0r
2D\	2B\	.	.	.
2E\	2c\	.	.	.
2F\	[2c\	.	.	.
=53	=53	=53	=53	=53
1D	2c\]	0r	0r	0r
.	2B\	.	.	.
[1C	[1c	.	.	.
=54	=54	=54	=54	=54
1C]	1c]	0r	0r	0r
2r	2B\	.	.	.
[2G\	2c\	.	.	.
=55	=55	=55	=55	=55
2G\]	1.d	0r	0r	0r
2A\	.	.	.	.
2B\	.	.	.	.
4A\	4c\	.	.	.
4B\	4d\	.	.	.
=56	=56	=56	=56	=56
2c\	1e	0r	0r	0r
2C/	.	.	.	.
2.E\	[1c	.	.	.
4F\	.	.	.	.
=57	=57	=57	=57	=57
2G\	2c\]	0r	0r	0r
1A	2A/	.	.	.
.	1B	.	.	.
2G#i\	.	.	.	.
=58	=58	=58	=58	=58
1A	2A/	0r	0r	0r
.	1.c	.	.	.
2r	.	.	.	.
2A\	.	.	.	.
=59	=59	=59	=59	=59
2G\	2B\	0r	0r	0r
2E\	2G/	.	.	.
2F\	1A	.	.	.
2D\	.	.	.	.
=60	=60	=60	=60	=60
2r	2G/	0r	0r	0r
1G	2B\	.	.	.
.	1A	.	.	.
2F#i\	.	.	.	.
=61	=61	=61	=61	=61
1.G	1G	0r	0r	0r
.	1r	.	.	.
[2E\	.	.	.	.
=62	=62	=62	=62	=62
2E\]	1c	0r	0r	0r
2C/	.	.	.	.
1D	2A/	.	.	.
.	2B\	.	.	.
=63	=63	=63	=63	=63
1C	1c	0r	0r	0r
2BB-/	1G	.	.	.
2C/	.	.	.	.
=64	=64	=64	=64	=64
2D\	2F/	0r	0r	0r
2.E-\	2G/	.	.	.
.	2.B-\	.	.	.
4D\	.	.	.	.
[2BB-i/	.	.	.	.
.	4A/	.	.	.
=65	=65	=65	=65	=65
2BB-/]	2F/	0r	0r	0r
2E-i\	2r	.	.	.
2.D\	1B-i	.	.	.
4C/	.	.	.	.
=66	=66	=66	=66	=66
2F\	2A/	0r	0r	0r
1F	2F/	.	.	.
.	1G	.	.	.
2E\	.	.	.	.
=67	=67	=67	=67	=67
0F;	0F;	0r	0r	0r
=68	=68	=68	=68	=68
0r	2.C/	0r	0r	0r
.	4D/	.	.	.
.	2E/	.	.	.
.	2F/	.	.	.
=69	=69	=69	=69	=69
2r	2G/	0r	0r	0r
2C/	2E/	.	.	.
2.D\	2F/	.	.	.
.	2G/	.	.	.
4E\	.	.	.	.
=70	=70	=70	=70	=70
2F\	2A/	0r	0r	0r
2.G\	2B-i\	.	.	.
.	1G	.	.	.
8F\L	.	.	.	.
8D\J	.	.	.	.
2E\	.	.	.	.
=71	=71	=71	=71	=71
2.F\	1F	0r	0r	0r
4G\	.	.	.	.
4A\	1F	.	.	.
4B\	.	.	.	.
2c\	.	.	.	.
=72	=72	=72	=72	=72
2r	1A	0r	0r	0r
2.F\	.	.	.	.
.	1c	.	.	.
4E\	.	.	.	.
2C/	.	.	.	.
=73	=73	=73	=73	=73
2G\	1B-i	0r	0r	0r
1G	.	.	.	.
.	1G	.	.	.
4F\	.	.	.	.
4E\	.	.	.	.
=74	=74	=74	=74	=74
1F	1A	0r	0r	0r
2G\	1G	.	.	.
2B-i\	.	.	.	.
=75	=75	=75	=75	=75
2A\	1F	0r	0r	0r
2c\	.	.	.	.
2B-i\	2G/	.	.	.
[2G\	2B-i\	.	.	.
=76	=76	=76	=76	=76
2G\]	1A	0r	0r	0r
2F\	.	.	.	.
2E\	2G/	.	.	.
[2D\	2F/	.	.	.
=77	=77	=77	=77	=77
4D\]	2A/	0r	0r	0r
4C/	.	.	.	.
2BB-i/	1G	.	.	.
1AA	.	.	.	.
.	2F#i/	.	.	.
=78	=78	=78	=78	=78
1GG	1G	0r	0r	0r
2r	1A	.	.	.
[2C/	.	.	.	.
=79	=79	=79	=79	=79
4C/]	1r	0r	0r	0r
4BB/	.	.	.	.
2C/	.	.	.	.
2GG/	1G	.	.	.
[2C/	.	.	.	.
=80	=80	=80	=80	=80
2C/]	1G	0r	0r	0r
2E\	.	.	.	.
2D\	1A	.	.	.
[2F\	.	.	.	.
=81	=81	=81	=81	=81
4F\]	1c	0r	0r	0r
4E\	.	.	.	.
2C/	.	.	.	.
2D\	1B	.	.	.
2GG/	.	.	.	.
=82	=82	=82	=82	=82
2r	1c	0r	0r	0r
2.F\	.	.	.	.
.	1c	.	.	.
4E\	.	.	.	.
[2C/	.	.	.	.
=83	=83	=83	=83	=83
2C/]	1A	0r	0r	0r
2D\	.	.	.	.
2C/	1c	.	.	.
[2F\	.	.	.	.
=84	=84	=84	=84	=84
4F\]	0c	0r	0r	0r
4E\	.	.	.	.
2F\	.	.	.	.
2G\	.	.	.	.
[2A\	.	.	.	.
=85	=85	=85	=85	=85
2A\]	2c\	0r	0r	0r
1D	1B-i	.	.	.
2C/	[2A/	.	.	.
=86	=86	=86	=86	=86
1BB-i	2A/]	0r	0r	0r
.	2G/	.	.	.
1AA	1A	.	.	.
=87	=87	=87	=87	=87
1GG	1B-i	0r	0r	0r
2r	2A/	.	.	.
[2G\	2G/	.	.	.
=88	=88	=88	=88	=88
2G\]	1A	0r	0r	0r
2F\	.	.	.	.
2.B-\	2r	.	.	.
.	2G/	.	.	.
8A\L	.	.	.	.
8B-\J	.	.	.	.
=89	=89	=89	=89	=89
2.c\	2A/	0r	0r	0r
.	2F/	.	.	.
4B-i\	.	.	.	.
4A\	1B-i	.	.	.
4G\	.	.	.	.
[2G\	.	.	.	.
=90	=90	=90	=90	=90
2G\]	1A	0r	0r	0r
2F#i\	.	.	.	.
[1G	1G	.	.	.
=91	=91	=91	=91	=91
1G]	1r	0r	0r	0r
1r	1G	.	.	.
=92	=92	=92	=92	=92
1E	1G	0r	0r	0r
1F	1A	.	.	.
=93	=93	=93	=93	=93
2r	0G	0r	0r	0r
1G	.	.	.	.
2E\	.	.	.	.
=94	=94	=94	=94	=94
2D\	1A	0r	0r	0r
2.F\	.	.	.	.
.	1c	.	.	.
4E\	.	.	.	.
[2C/	.	.	.	.
=95	=95	=95	=95	=95
4C/]	1G	0r	0r	0r
4D\	.	.	.	.
2E\	.	.	.	.
2AA/	[1A	.	.	.
2C/	.	.	.	.
=96	=96	=96	=96	=96
2D\	2A/]	0r	0r	0r
1F	2F/	.	.	.
.	1G	.	.	.
2E\	.	.	.	.
=97	=97	=97	=97	=97
1F	0F	0r	0r	0r
1r	.	.	.	.
=98	=98	=98	=98	=98
1BB-	1r	0r	0r	0r
1D	1F	.	.	.
=99	=99	=99	=99	=99
1.F	1A	0r	0r	0r
.	[1c	.	.	.
4E\	.	.	.	.
4D\	.	.	.	.
=100	=100	=100	=100	=100
1C	1c]	0r	0r	0r
2r	1c	.	.	.
[2F\	.	.	.	.
=101	=101	=101	=101	=101
2F\]	1c	0r	0r	0r
1E	.	.	.	.
.	1c	.	.	.
2F\	.	.	.	.
=102	=102	=102	=102	=102
1D	1B	0r	0r	0r
2C/	1c	.	.	.
[2F\	.	.	.	.
=103	=103	=103	=103	=103
2F\]	2A/	0r	0r	0r
2E\	1G	.	.	.
1C	.	.	.	.
.	2c\	.	.	.
=104	=104	=104	=104	=104
2D\	2B\	0r	0r	0r
2E\	1G	.	.	.
1C	.	.	.	.
.	2A/	.	.	.
=105	=105	=105	=105	=105
1.BB-i	2B-\	0r	0r	0r
.	2G/	.	.	.
.	[1F	.	.	.
2C/	.	.	.	.
=106	=106	=106	=106	=106
1.D	2F/]	0r	0r	0r
.	2G/	.	.	.
.	[1A	.	.	.
2E\	.	.	.	.
=107	=107	=107	=107	=107
1.F	2A/]	0r	0r	0r
.	2B-i\	.	.	.
.	[1c	.	.	.
2E\	.	.	.	.
=108	=108	=108	=108	=108
1C	1c]	0r	0r	0r
2r	1A	.	.	.
2D\	.	.	.	.
=109	=109	=109	=109	=109
2C/	1c	0r	0r	0r
2F\	.	.	.	.
2E\	1G	.	.	.
[2C/	.	.	.	.
=110	=110	=110	=110	=110
2C/]	0G	0r	0r	0r
2BB/	.	.	.	.
2C/	.	.	.	.
2E\	.	.	.	.
=111	=111	=111	=111	=111
2D\	1A	0r	0r	0r
2F\	.	.	.	.
2E\	2G/	.	.	.
2C/	2A/	.	.	.
=112	=112	=112	=112	=112
1D	1B	0r	0r	0r
4E\	4c\	.	.	.
4D\	4B\	.	.	.
4C/	4A/	.	.	.
4BB/	4G/	.	.	.
=113	=113	=113	=113	=113
2.AA/	2.F/	0r	0r	0r
4BB/	4G/	.	.	.
2C/	2A/	.	.	.
[2D\	[2B-i\	.	.	.
=114	=114	=114	=114	=114
2D\]	4B-\]	0r	0r	0r
.	4A/	.	.	.
2BB-i/	1G	.	.	.
1AA	.	.	.	.
.	2F#i/	.	.	.
=115	=115	=115	=115	=115
2.GG/	[0G	0r	0r	0r
4AA/	.	.	.	.
2BB/	.	.	.	.
2C/	.	.	.	.
=116	=116	=116	=116	=116
2GG/	0G]	0r	0r	0r
2.C/	.	.	.	.
4D\	.	.	.	.
[2E\	.	.	.	.
=117	=117	=117	=117	=117
4E\]	1G	0r	0r	0r
8D/L	.	.	.	.
8C/J	.	.	.	.
1G	.	.	.	.
.	1A	.	.	.
2F#i\	.	.	.	.
=118	=118	=118	=118	=118
0Gl	0Gl	0r	0r	0r
!!LO:LB:i:g=z
=119||	=119||	=119||	=119||	=119||
*>C	*>C	*>C	*>C	*>C
*clefF4	*clefGv2	*clefGv2	*clefG2	*clefG2
*k[]	*k[]	*k[]	*k[]	*k[]
*M3/1	*M3/1	*M3/1	*M3/1	*M3/1
*met(O|)	*met(O|)	*met(O|)	*met(O|)	*met(O|)
!!section: Fuerunt michi lacrime mee
!!!OMD: Fuerunt michi lacrime mee
0.r	0.r	0.r	1.g	0g
.	.	.	1e	.
.	.	.	.	2.a/
.	.	.	2f/	.
.	.	.	.	8g/L
.	.	.	.	8a/J
=120	=120	=120	=120	=120
0.r	0.r	0.r	2g/	2b\
.	.	.	2e/	1cc
.	.	.	1d	.
.	.	.	.	2b\
.	.	.	1c	1cc
=121	=121	=121	=121	=121
0.r	2A/	0.r	1r	2cc\
.	2A/	.	.	2cc\
.	2A/	.	2a/	2cc\
.	2A/	.	2a/	2cc\
.	1A	.	2a/	1cc
.	.	.	2a/	.
=122	=122	=122	=122	=122
0.r	0.r	0.r	1a	1cc
.	.	.	2g/	1dd
.	.	.	2b\	.
.	.	.	2cc\	1cc
.	.	.	[2a/	.
=123	=123	=123	=123	=123
0.r	0.r	0.r	4a/]	2.b\
.	.	.	4g/	.
.	.	.	1g	.
.	.	.	.	4g/
.	.	.	.	1a
.	.	.	2f#i/	.
.	.	.	1g	1g
=124	=124	=124	=124	=124
0.r	2d\	0.r	0.r	2a/
.	4c\	.	.	2cc\
.	4d\	.	.	.
.	2e\	.	.	2b\
.	2A/	.	.	1a
.	1B	.	.	.
.	.	.	.	2g#i/
=125	=125	=125	=125	=125
0.r	2A/	0.r	2r	1a
.	2r	.	1d	.
.	1r	.	.	2b\
.	.	.	2c/	1cc
.	1r	.	1f	.
.	.	.	.	2a/
=126	=126	=126	=126	=126
0.r	1r	0.r	2e/	1.g
.	.	.	1.c	.
.	1r	.	.	.
.	.	.	.	2.a/
.	2r	.	1d	.
.	.	.	.	4g/
.	2d\	.	.	4f/
.	.	.	.	4e/
=127	=127	=127	=127	=127
0.r	2B\	0.r	1r	2d/
.	2G/	.	.	1g
.	1A	.	1r	.
.	.	.	.	2f#i/
.	1G	.	2r	[1g
.	.	.	[2g/	.
=128	=128	=128	=128	=128
0.r	0.r	0.r	2g/]	1g]
.	.	.	1e	.
.	.	.	.	2r
.	.	.	4d/	2.a/
.	.	.	4c/	.
.	.	.	2B/	.
.	.	.	.	4g/
.	.	.	2c/	[2cc\
=129	=129	=129	=129	=129
0.r	0.r	0.r	1d	2cc\]
.	.	.	.	2b\
.	.	.	1.c	1cc
.	.	.	.	1cc
.	.	.	2e/	.
=130	=130	=130	=130	=130
0.r	0.r	0.r	2e/	1cc
.	.	.	2f/	.
.	.	.	2g/	2b\
.	.	.	2a/	2cc\
.	.	.	1f	1dd
=131	=131	=131	=131	=131
0.r	0.r	0.r	1e	1ee
.	.	.	2r	0cc
.	.	.	1a	.
.	.	.	[2cc\	.
=132	=132	=132	=132	=132
0.r	0.r	0.r	2cc\]	1a
.	.	.	2f/	.
.	.	.	2e/	1.cc
.	.	.	1a	.
.	.	.	[2g/	2b\
=133	=133	=133	=133	=133
0.r	0.r	0.r	2g/]	1a
.	.	.	2f/	.
.	.	.	2e/	2.g/
.	.	.	1g	.
.	.	.	.	4b\
.	.	.	.	1a
.	.	.	2f#i/	.
=134	=134	=134	=134	=134
0.r	2r	0.r	1g	1g
.	1c	.	.	.
.	.	.	1r	1cc
.	4B\	.	.	.
.	4c\	.	.	.
.	2d\	.	1r	2b-i\
.	2A/	.	.	[2a/
=135	=135	=135	=135	=135
0.r	1B-i	0.r	1r	4a/]
.	.	.	.	4f/
.	.	.	.	2g/
.	1A	.	1r	1.a
.	1F	.	2a/	.
.	.	.	2f/	[2cc\
=136	=136	=136	=136	=136
0.r	1r	0.r	2e/	2cc\]
.	.	.	1f	4b-i\
.	.	.	.	4a/
.	1r	.	.	1g
.	.	.	2e/	.
.	2.F/	.	2d/	[1f
.	.	.	[2c/	.
.	4G/	.	.	.
=137	=137	=137	=137	=137
0.r	4A/	0.r	2c/]	2f/]
.	4B\	.	.	.
.	2c\	.	2a/	2e/
.	2r	.	2b-i\	1d
.	2B\	.	2g/	.
.	2c\	.	2a/	2c/
.	2F/	.	2cc\	[2f/
=138	=138	=138	=138	=138
0.r	1G	0.r	1b-	2f/]
.	.	.	.	2e/
.	0F;	.	0a;	0f;
=139	=139	=139	=139	=139
0.r	0.r	0.r	1.f	1r
.	.	.	.	1f
.	.	.	2.a/	.
.	.	.	.	2.a/
.	.	.	4b\	.
.	.	.	2cc\	.
.	.	.	.	4b\
=140	=140	=140	=140	=140
0.r	0.r	0.r	2f/	1.cc
.	.	.	2e/	.
.	.	.	2c/	.
.	.	.	1g	2b\
.	.	.	.	1g
.	.	.	2e/	.
=141	=141	=141	=141	=141
0.r	0.r	0.r	1f	1a
.	.	.	2g/	1g
.	.	.	2b-i\	.
.	.	.	2a/	1f
.	.	.	[2cc\	.
=142	=142	=142	=142	=142
0.r	1r	0.r	4cc\]	1g
.	.	.	4b-i\	.
.	.	.	2.g/	.
.	1r	.	.	1a
.	.	.	4e/	.
.	.	.	2f/	.
.	2.G/	.	1r	2r
.	.	.	.	[2g/
.	4F/	.	.	.
=143	=143	=143	=143	=143
0.r	2E/	0.r	0.r	2g/]
.	2D/	.	.	2f/
.	2E/	.	.	1g
.	1G	.	.	.
.	.	.	.	1a
.	2F#i/	.	.	.
=144	=144	=144	=144	=144
0.r	0.r	0.r	2.g/	1g
.	.	.	4a/	.
.	.	.	1.b	1r
.	.	.	.	1g
.	.	.	[2e/	.
=145	=145	=145	=145	=145
0.r	0.r	0.r	4e/]	1g
.	.	.	4d/	.
.	.	.	2e/	.
.	.	.	2d/	1a
.	.	.	2f/	.
.	.	.	2e/	1g
.	.	.	[2g/	.
=146	=146	=146	=146	=146
0.r	0.r	0.r	2g/]	0g
.	.	.	2.c/	.
.	.	.	4d/	.
.	.	.	4e/	.
.	.	.	4f/	.
.	.	.	2g/	2r
.	.	.	2f/	[2a/
=147	=147	=147	=147	=147
0.r	0.r	0.r	2g/	4a/]
.	.	.	.	4b\
.	.	.	2c/	1cc
.	.	.	1d	.
.	.	.	.	2b\
.	.	.	[1c	1cc
=148	=148	=148	=148	=148
0.r	0.r	0.r	1c]	1cc
.	.	.	2r	1a
.	.	.	2d/	.
.	.	.	2e/	1cc
.	.	.	2c/	.
=149	=149	=149	=149	=149
0.r	1r	0.r	2.f/	0cc
.	.	.	4g/	.
.	2c\	.	1e	.
.	4B\	.	.	.
.	4c\	.	.	.
.	2d\	.	1r	2b-i\
.	2A/	.	.	[2a/
=150	=150	=150	=150	=150
0.r	1B-i	0.r	1r	2a/]
.	.	.	.	2g/
.	0A	.	1r	1a
.	.	.	1cc	1r
=151	=151	=151	=151	=151
0.r	1r	0.r	2b-i\	1b-
.	.	.	2g/	.
.	1r	.	2a/	1a
.	.	.	2f/	.
.	2G/	.	2g/	2g/
.	2B-i\	.	2d/	[2g/
=152	=152	=152	=152	=152
0.r	1A	0.r	2r	2g/]
.	.	.	2cc\	2f/
.	2.G/	.	2b-i\	2.g/
.	.	.	1dd	.
.	4F/	.	.	4d/
.	2G/	.	.	2g/
.	2D/	.	2dd\	2f/
=153	=153	=153	=153	=153
0.r	2G/	0.r	1dd	2b-i\
.	2F/	.	.	4a/
.	.	.	.	4cc\
.	1B-i	.	1dd	4b-i\
.	.	.	.	8a/L
.	.	.	.	8g/J
.	.	.	.	1g
.	1A	.	2.cc\	.
.	.	.	.	2f#i/
.	.	.	4a/	.
=154	=154	=154	=154	=154
0.r	0.Gl	0.r	0.bl	0.gl
!!LO:LB:i:g=z
=155||	=155||	=155||	=155||	=155||
*>D	*>D	*>D	*>D	*>D
*clefF4	*clefGv2	*clefGv2	*clefG2	*clefG2
*k[]	*k[]	*k[]	*k[]	*k[]
*M3/1	*M3/1	*M3/1	*M3/1	*M3/1
*met(O)	*met(O)	*met(O)	*met(O)	*met(O)
!!section: Ubi est deus tuus
!!!OMD: Ubi est deus tuus
0F	0c	1.c	0.r	0a
.	.	2d\	.	.
1G	1B	1e	.	1g
=156	=156	=156	=156	=156
1.F	1c	2.f\	0.r	1a
.	.	4e\	.	.
.	1F	2c\	.	1.cc
4E\	.	2d\	.	.
4D\	.	.	.	.
1C	[1G	1e	.	.
.	.	.	.	4b\
.	.	.	.	4a/
=157	=157	=157	=157	=157
1C	1G]	1c	0.r	1g
1C	1c	1r	.	2a/
.	.	.	.	1g
2D\	2A/	1r	.	.
2BB-i/	2B-i\	.	.	[2f/
=158	=158	=158	=158	=158
1C	1G	1c	0.r	2f/]
.	.	.	.	2e/
1r	1.F	[0c	.	1f
[1F	.	.	.	1r
.	2G/	.	.	.
=159	=159	=159	=159	=159
1F]	1A	1c]	0.r	2.f/
.	.	.	.	4g/
1D	1F	1d	.	1a
2E\	2c\	1G	.	2g/
2C/	2e\	.	.	[2cc\
=160	=160	=160	=160	=160
1G	1d	1r	0.r	2cc\]
.	.	.	.	2b\
1C	0c	1r	.	0cc
2F\	.	1c	.	.
2E\	.	.	.	.
=161	=161	=161	=161	=161
1D	1F	1d	0.r	1r
2C/	1r	2G/	.	1cc
2D\	.	2F/	.	.
2E\	1c	2G/	.	1cc
2F\	.	2A/	.	.
=162	=162	=162	=162	=162
1D	1d	1F	0.r	1b
1C	1e	1G	.	2.cc\
.	.	.	.	4b\
2F\	2c\	2A/	.	4a/
.	.	.	.	4g/
2G\	2B\	2B\	.	[2g/
=163	=163	=163	=163	=163
1D	1A	0d	0.r	2g/]
.	.	.	.	2f/
2r	1.G	.	.	2.g/
1B-i	.	.	.	.
.	.	.	.	4f/
.	.	1r	.	4e/
.	.	.	.	4d/
2A\	2F/	.	.	2d/
=164	=164	=164	=164	=164
2G\	2E/	2e\	0.r	2r
2F\	2D/	2f\	.	1b-i
2G\	2d\	2d\	.	.
2r	2c\	2e\	.	2a/
2G\	2B\	2.d\	.	2g/
2D\	2A/	.	.	2f/
.	.	4c\	.	.
=165	=165	=165	=165	=165
1G	1B	1e	0.r	1g
0F	1.c	1.f	.	1.a
.	2A/	4e\	.	2f/
.	.	4d\	.	.
=166	=166	=166	=166	=166
1.F	0A	1.c	0.r	[0.f
2D\	.	4B\	.	.
.	.	4c\	.	.
[1D	[1A	[1dl	.	.
=167	=167	=167	=167	=167
1D]	1A]	0.d]	0.r	1f]
0Gl	0Gl	.	.	0gl
==	==	==	==	==
*-	*-	*-	*-	*-
!!!RDF**kern: l=long note in original notation
!!!RDF**kern: i=editorial accidental
!!!RDF**kern: V=start of tuplet marker
!!!RDF**kern: Z=end of tuplet marker
!!!ENC:	Chris Gage 07-11-2012
!!!END:	2012/10/12/
!!!EED:	Jesse Rodin
!!!EEV:	2012/10/13/
!!!ONB:	Translated from MusicXML and edited on 2012/10/13/ by Craig Sapp
!!muse2ps: T^@{OPR}^u^@{ONM}{ .}@{OTL}^C^@{COM}^i2I150v85,85,85,85,130Q16
